dist/svgs/unicons/line/crockery.svg

<svg xmlns="http://www.w3.org/2000/svg" viewBox="0 0 24 24"><path d="M18 12.15V3a1 1 0 00-2 0v9.15a4.16 4.16 0 00-3 4c0 2.05 1.52 5.8 4 5.8s4-3.75 4-5.8a4.16 4.16 0 00-3-4zM17 20c-.8 0-2-2.27-2-3.8a2.11 2.11 0 012-2.2 2.11 2.11 0 012 2.2c0 1.53-1.2 3.8-2 3.8zM10 2a1 1 0 00-1 1v5.46l-1 .67V3a1 1 0 00-2 0v6.13l-1-.67V3a1 1 0 00-2 0v6a1 1 0 00.45.83L6 11.54V21a1 1 0 002 0v-9.46l2.55-1.71A1 1 0 0011 9V3a1 1 0 00-1-1z"/></svg>

<svg xmlns="http://www.w3.org/2000/svg" viewBox="0 0 24 24"><path d="M18,12.15V3a1,1,0,0,0-2,0v9.15a4.16,4.16,0,0,0-3,4c0,2.05,1.52,5.8,4,5.8s4-3.75,4-5.8A4.16,4.16,0,0,0,18,12.15ZM17,20c-.8,0-2-2.27-2-3.8A2.11,2.11,0,0,1,17,14a2.11,2.11,0,0,1,2,2.2C19,17.73,17.8,20,17,20ZM10,2A1,1,0,0,0,9,3V8.46L8,9.13V3A1,1,0,0,0,6,3V9.13L5,8.46V3A1,1,0,0,0,3,3V9a1,1,0,0,0,.45.83L6,11.54V21a1,1,0,0,0,2,0V11.54l2.55-1.71A1,1,0,0,0,11,9V3A1,1,0,0,0,10,2Z"/></svg>
